cubeTest.cube
# Alexa conversion LUT, logc2video, itu709. Legal in/legal out.
# created by alexalutconv (2.11)
LUT_3D_SIZE 5
0.062561 0.062561 0.062561
0.193809 0.062561 0.063891
0.700999 0.062561 0.098914
0.918866 0.062561 0.154787
0.918866 0.062561 0.157656
0.062561 0.182607 0.062561
0.170418 0.180630 0.062561
0.698373 0.107134 0.083851
0.918866 0.062561 0.145201
0.918866 0.062561 0.148354
0.062561 0.663283 0.062561
0.062561 0.663042 0.062561
0.622247 0.656629 0.062561
0.918866 0.643556 0.062561
0.918866 0.642639 0.062561
0.062561 0.918866 0.062561
0.062561 0.918866 0.062561
0.387936 0.918866 0.062561
0.918866 0.918866 0.062561
0.918866 0.918866 0.062561
0.062561 0.918866 0.062561
0.062561 0.918866 0.062561
0.361284 0.918866 0.062561
0.918866 0.918866 0.062561
0.918866 0.918866 0.062561
0.062561 0.062561 0.172178
0.189290 0.062561 0.172861
0.700452 0.062561 0.189537
0.918866 0.062561 0.217228
0.918866 0.062561 0.218938
0.062561 0.167133 0.164127
0.164862 0.164862 0.164862
0.697823 0.076376 0.182654
0.918866 0.062561 0.211715
0.918866 0.062561 0.213494
0.062561 0.661496 0.062561
0.062561 0.661253 0.062561
0.621580 0.654812 0.062561
0.918866 0.641676 0.062561
0.918866 0.640755 0.062561
0.062561 0.918866 0.062561
0.062561 0.918866 0.062561
0.386473 0.918866 0.062561
0.918866 0.918866 0.062561
0.918866 0.918866 0.062561
0.062561 0.918866 0.062561
0.062561 0.918866 0.062561
0.359639 0.918866 0.062561
0.918866 0.918866 0.062561
0.918866 0.918866 0.062561
0.062561 0.062561 0.628174
0.062561 0.062561 0.628259
0.685785 0.062561 0.630476
0.918866 0.062561 0.634847
0.918866 0.062561 0.635146
0.062561 0.062561 0.627217
0.062561 0.062561 0.627301
0.683060 0.062561 0.629524
0.918866 0.062561 0.633906
0.918866 0.062561 0.634206
0.062561 0.611190 0.601069
0.062561 0.610913 0.601161
0.603545 0.603545 0.603545
0.918866 0.588430 0.608243
0.918866 0.587366 0.608565
0.062561 0.918866 0.542510
0.062561 0.918866 0.542618
0.344122 0.918866 0.545445
0.918866 0.918866 0.550994
0.918866 0.918866 0.551373
0.062561 0.918866 0.538079
0.062561 0.918866 0.538188
0.310959 0.918866 0.541053
0.916117 0.918866 0.546677
0.918866 0.918866 0.547060
0.062561 0.062561 0.918866
0.062561 0.062561 0.918866
0.654938 0.062561 0.918866
0.918866 0.062561 0.918866
0.918866 0.062561 0.918866
0.062561 0.062561 0.918866
0.062561 0.062561 0.918866
0.651993 0.062561 0.918866
0.918866 0.062561 0.918866
0.918866 0.062561 0.918866
0.062561 0.482723 0.918866
0.062561 0.482313 0.918866
0.564727 0.471303 0.918866
0.918866 0.448045 0.918866
0.918866 0.446369 0.918866
0.062561 0.915062 0.900073
0.062561 0.914921 0.900120
0.215524 0.911206 0.901334
0.903741 0.903741 0.903741
0.918866 0.903223 0.903906
0.062561 0.918866 0.898185
0.062561 0.918866 0.898232
0.121707 0.918866 0.899450
0.897550 0.918866 0.901866
0.918866 0.918866 0.902031
0.062561 0.062561 0.918866
0.062561 0.062561 0.918866
0.652723 0.062561 0.918866
0.918866 0.062561 0.918866
0.918866 0.062561 0.918866
0.062561 0.062561 0.918866
0.062561 0.062561 0.918866
0.649762 0.062561 0.918866
0.918866 0.062561 0.918866
0.918866 0.062561 0.918866
0.062561 0.471605 0.918866
0.062561 0.471178 0.918866
0.561888 0.459722 0.918866
0.918866 0.435416 0.918866
0.918866 0.433659 0.918866
0.062561 0.911306 0.916968
0.062561 0.911165 0.917013
0.201249 0.907424 0.918190
0.902454 0.899905 0.918866
0.918866 0.899383 0.918866
0.062561 0.918866 0.915138
0.062561 0.918866 0.915184
0.085237 0.918866 0.916364
0.896248 0.918866 0.918706
0.918866 0.918866 0.918866
