cubeTest.cube
# Alexa conversion LUT, logc2video, itu709. Legal in/legal out.
# created by alexalutconv (2.11)
LUT_3D_SIZE 9
0.062561 0.062561 0.062561
0.070668 0.062561 0.062620
0.193809 0.062561 0.063891
0.420887 0.062561 0.072089
0.700999 0.062561 0.098914
0.918866 0.062561 0.138128
0.918866 0.062561 0.154787
0.918866 0.062561 0.157609
0.918866 0.062561 0.157656
0.062561 0.069565 0.062561
0.068478 0.069381 0.062561
0.192866 0.065401 0.063225
0.420617 0.062561 0.071423
0.700884 0.062561 0.098248
0.918866 0.062561 0.137646
0.918866 0.062561 0.154382
0.918866 0.062561 0.157215
0.918866 0.062561 0.157262
0.062561 0.182607 0.062561
0.062561 0.182520 0.062561
0.170418 0.180630 0.062561
0.414703 0.167635 0.062561
0.698373 0.107134 0.083851
0.918866 0.062561 0.126554
0.918866 0.062561 0.145201
0.918866 0.062561 0.148303
0.918866 0.062561 0.148354
0.062561 0.397814 0.062561
0.062561 0.397789 0.062561
0.062561 0.397250 0.062561
0.372710 0.393744 0.062561
0.681814 0.381896 0.062561
0.918866 0.360847 0.062561
0.918866 0.347920 0.062561
0.918866 0.345419 0.065403
0.918866 0.345376 0.065482
0.062561 0.663283 0.062561
0.062561 0.663273 0.062561
0.062561 0.663042 0.062561
0.062561 0.661550 0.062561
0.622247 0.656629 0.062561
0.901572 0.648347 0.062561
0.918866 0.643556 0.062561
0.918866 0.642655 0.062561
0.918866 0.642639 0.062561
0.062561 0.895965 0.062561
0.062561 0.895959 0.062561
0.062561 0.895819 0.062561
0.062561 0.894920 0.062561
0.494897 0.891969 0.062561
0.840965 0.887047 0.062561
0.918866 0.884227 0.062561
0.918866 0.883699 0.062561
0.918866 0.883690 0.062561
0.062561 0.918866 0.062561
0.062561 0.918866 0.062561
0.062561 0.918866 0.062561
0.062561 0.918866 0.062561
0.387936 0.918866 0.062561
0.802929 0.918866 0.062561
0.918866 0.918866 0.062561
0.918866 0.918866 0.062561
0.918866 0.918866 0.062561
0.062561 0.918866 0.062561
0.062561 0.918866 0.062561
0.062561 0.918866 0.062561
0.062561 0.918866 0.062561
0.361750 0.918866 0.062561
0.795483 0.918866 0.062561
0.918866 0.918866 0.062561
0.918866 0.918866 0.062561
0.918866 0.918866 0.062561
0.062561 0.918866 0.062561
0.062561 0.918866 0.062561
0.062561 0.918866 0.062561
0.062561 0.918866 0.062561
0.361284 0.918866 0.062561
0.795357 0.918866 0.062561
0.918866 0.918866 0.062561
0.918866 0.918866 0.062561
0.918866 0.918866 0.062561
0.062561 0.062561 0.068628
0.070211 0.062561 0.068687
0.193613 0.062561 0.069958
0.420831 0.062561 0.078156
0.700975 0.062561 0.104981
0.918866 0.062561 0.142401
0.918866 0.062561 0.158404
0.918866 0.062561 0.161130
0.918866 0.062561 0.161175
0.062561 0.068204 0.067962
0.068021 0.068021 0.068021
0.192668 0.064040 0.069292
0.420561 0.062561 0.077490
0.700859 0.062561 0.104315
0.918866 0.062561 0.141941
0.918866 0.062561 0.158013
0.918866 0.062561 0.160749
0.918866 0.062561 0.160794
0.062561 0.181965 0.062561
0.062561 0.181877 0.062561
0.170178 0.179977 0.062561
0.414645 0.166902 0.063093
0.698349 0.105774 0.089918
0.918866 0.062561 0.131399
0.918866 0.062561 0.149174
0.918866 0.062561 0.152156
0.918866 0.062561 0.152205
0.062561 0.397631 0.062561
0.062561 0.397605 0.062561
0.062561 0.397066 0.062561
0.372641 0.393557 0.062561
0.681789 0.381699 0.062561
0.918866 0.360630 0.062561
0.918866 0.347691 0.066754
0.918866 0.345187 0.071470
0.918866 0.345144 0.071548
0.062561 0.663205 0.062561
0.062561 0.663194 0.062561
0.062561 0.662963 0.062561
0.062561 0.661471 0.062561
0.622218 0.656550 0.062561
0.901556 0.648266 0.062561
0.918866 0.643473 0.062561
0.918866 0.642572 0.062561
0.918866 0.642556 0.062561
0.062561 0.895917 0.062561
0.062561 0.895911 0.062561
0.062561 0.895772 0.062561
0.062561 0.894873 0.062561
0.494853 0.891921 0.062561
0.840947 0.886999 0.062561
0.918866 0.884178 0.062561
0.918866 0.883650 0.062561
0.918866 0.883641 0.062561
0.062561 0.918866 0.062561
0.062561 0.918866 0.062561
0.062561 0.918866 0.062561
0.062561 0.918866 0.062561
0.387872 0.918866 0.062561
0.802910 0.918866 0.062561
0.918866 0.918866 0.062561
0.918866 0.918866 0.062561
0.918866 0.918866 0.062561
0.062561 0.918866 0.062561
0.062561 0.918866 0.062561
0.062561 0.918866 0.062561
0.062561 0.918866 0.062561
0.361678 0.918866 0.062561
0.795463 0.918866 0.062561
0.918866 0.918866 0.062561
0.918866 0.918866 0.062561
0.918866 0.918866 0.062561
0.062561 0.918866 0.062561
0.062561 0.918866 0.062561
0.062561 0.918866 0.062561
0.062561 0.918866 0.062561
0.361212 0.918866 0.062561
0.795338 0.918866 0.062561
0.918866 0.918866 0.062561
0.918866 0.918866 0.062561
0.918866 0.918866 0.062561
0.062561 0.062561 0.172178
0.062561 0.062561 0.172208
0.189290 0.062561 0.172861
0.419608 0.062561 0.176985
0.700452 0.062561 0.189537
0.918866 0.062561 0.207852
0.918866 0.062561 0.217228
0.918866 0.062561 0.218910
0.918866 0.062561 0.218938
0.062561 0.062561 0.171834
0.062561 0.062561 0.171864
0.188312 0.062561 0.172520
0.419336 0.062561 0.176655
0.700336 0.062561 0.189241
0.918866 0.062561 0.207596
0.918866 0.062561 0.216989
0.918866 0.062561 0.218673
0.918866 0.062561 0.218701
0.062561 0.167133 0.164127
0.062561 0.167033 0.164160
0.164862 0.164862 0.164862
0.413392 0.149670 0.169288
0.697823 0.076376 0.182654
0.918866 0.062561 0.201928
0.918866 0.062561 0.211715
0.918866 0.062561 0.213465
0.918866 0.062561 0.213494
0.062561 0.393615 0.091859
0.062561 0.393590 0.091917
0.062561 0.393041 0.093189
0.371147 0.389472 0.101386
0.681241 0.377402 0.126522
0.918866 0.355908 0.157210
0.918866 0.342674 0.171208
0.918866 0.340109 0.173633
0.918866 0.340066 0.173673
0.062561 0.661496 0.062561
0.062561 0.661485 0.062561
0.062561 0.661253 0.062561
0.062561 0.659755 0.062561
0.621580 0.654812 0.062561
0.901214 0.646491 0.062561
0.918866 0.641676 0.062561
0.918866 0.640770 0.062561
0.918866 0.640755 0.062561
0.062561 0.894888 0.062561
0.062561 0.894881 0.062561
0.062561 0.894742 0.062561
0.062561 0.893841 0.062561
0.493918 0.890884 0.062561
0.840562 0.885952 0.062561
0.918866 0.883125 0.062561
0.918866 0.882596 0.062561
0.918866 0.882587 0.062561
0.062561 0.918866 0.062561
0.062561 0.918866 0.062561
0.062561 0.918866 0.062561
0.062561 0.918866 0.062561
0.386473 0.918866 0.062561
0.802493 0.918866 0.062561
0.918866 0.918866 0.062561
0.918866 0.918866 0.062561
0.918866 0.918866 0.062561
0.062561 0.918866 0.062561
0.062561 0.918866 0.062561
0.062561 0.918866 0.062561
0.062561 0.918866 0.062561
0.360109 0.918866 0.062561
0.795041 0.918866 0.062561
0.918866 0.918866 0.062561
0.918866 0.918866 0.062561
0.918866 0.918866 0.062561
0.062561 0.918866 0.062561
0.062561 0.918866 0.062561
0.062561 0.918866 0.062561
0.062561 0.918866 0.062561
0.359639 0.918866 0.062561
0.794915 0.918866 0.062561
0.918866 0.918866 0.062561
0.918866 0.918866 0.062561
0.918866 0.918866 0.062561
0.062561 0.062561 0.376336
0.062561 0.062561 0.376345
0.156727 0.062561 0.376533
0.411579 0.062561 0.377744
0.697066 0.062561 0.381663
0.918866 0.062561 0.388007
0.918866 0.062561 0.391542
0.918866 0.062561 0.392196
0.918866 0.062561 0.392207
0.062561 0.062561 0.376237
0.062561 0.062561 0.376246
0.155415 0.062561 0.376434
0.411299 0.062561 0.377646
0.696949 0.062561 0.381566
0.918866 0.062561 0.387913
0.918866 0.062561 0.391449
0.918866 0.062561 0.392103
0.918866 0.062561 0.392115
0.062561 0.062561 0.374092
0.062561 0.062561 0.374101
0.121490 0.062561 0.374291
0.405159 0.062561 0.375514
0.694415 0.062561 0.379470
0.918866 0.062561 0.385874
0.918866 0.062561 0.389440
0.918866 0.062561 0.390100
0.918866 0.062561 0.390111
0.062561 0.365945 0.359754
0.062561 0.365916 0.359763
0.062561 0.365298 0.359966
0.361269 0.361269 0.361269
0.677691 0.347541 0.365479
0.918866 0.322655 0.372279
0.918866 0.306987 0.376058
0.918866 0.303915 0.376757
0.918866 0.303863 0.376769
0.062561 0.650299 0.304648
0.062561 0.650288 0.304660
0.062561 0.650049 0.304926
0.062561 0.648508 0.306629
0.617437 0.643419 0.312098
0.899001 0.634845 0.320824
0.918866 0.629880 0.325620
0.918866 0.628946 0.326504
0.918866 0.628930 0.326518
0.062561 0.888202 0.128543
0.062561 0.888195 0.128590
0.062561 0.888054 0.129604
0.062561 0.887142 0.135876
0.487818 0.884146 0.153863
0.838073 0.879151 0.178059
0.918866 0.876287 0.189810
0.918866 0.875751 0.191883
0.918866 0.875741 0.191917
0.062561 0.918866 0.062561
0.062561 0.918866 0.062561
0.062561 0.918866 0.062561
0.062561 0.918866 0.062561
0.377249 0.918866 0.062561
0.799801 0.918866 0.062561
0.918866 0.918866 0.062561
0.918866 0.918866 0.062561
0.918866 0.918866 0.062561
0.062561 0.918866 0.062561
0.062561 0.918866 0.062561
0.062561 0.918866 0.062561
0.062561 0.918866 0.062561
0.349712 0.918866 0.062561
0.792306 0.918866 0.062561
0.918866 0.918866 0.062561
0.918866 0.918866 0.062561
0.918866 0.918866 0.062561
0.062561 0.918866 0.062561
0.062561 0.918866 0.062561
0.062561 0.918866 0.062561
0.062561 0.918866 0.062561
0.349220 0.918866 0.062561
0.792179 0.918866 0.062561
0.918866 0.918866 0.062561
0.918866 0.918866 0.062561
0.918866 0.918866 0.062561
0.062561 0.062561 0.628174
0.062561 0.062561 0.628178
0.062561 0.062561 0.628259
0.383314 0.062561 0.628779
0.685785 0.062561 0.630476
0.918866 0.062561 0.633268
0.918866 0.062561 0.634847
0.918866 0.062561 0.635141
0.918866 0.062561 0.635146
0.062561 0.062561 0.628132
0.062561 0.062561 0.628136
0.062561 0.062561 0.628217
0.382998 0.062561 0.628737
0.685664 0.062561 0.630434
0.918866 0.062561 0.633226
0.918866 0.062561 0.634805
0.918866 0.062561 0.635099
0.918866 0.062561 0.635104
0.062561 0.062561 0.627217
0.062561 0.062561 0.627221
0.062561 0.062561 0.627301
0.376079 0.062561 0.627823
0.683060 0.062561 0.629524
0.918866 0.062561 0.632323
0.918866 0.062561 0.633906
0.918866 0.062561 0.634201
0.918866 0.062561 0.634206
0.062561 0.234287 0.621260
0.062561 0.234229 0.621264
0.062561 0.232956 0.621347
0.325373 0.224471 0.621877
0.665852 0.192351 0.623604
0.918866 0.103519 0.626448
0.918866 0.062561 0.628056
0.918866 0.062561 0.628355
0.918866 0.062561 0.628360
0.062561 0.611190 0.601069
0.062561 0.611178 0.601073
0.062561 0.610913 0.601161
0.062561 0.609201 0.601720
0.603545 0.603545 0.603545
0.891695 0.593985 0.606547
0.918866 0.588430 0.608243
0.918866 0.587383 0.608560
0.918866 0.587366 0.608565
0.062561 0.865705 0.564919
0.062561 0.865699 0.564923
0.062561 0.865551 0.565020
0.062561 0.864599 0.565640
0.466914 0.861470 0.567663
0.829839 0.856248 0.570985
0.918866 0.853254 0.572860
0.918866 0.852693 0.573209
0.918866 0.852684 0.573216
0.062561 0.918866 0.542510
0.062561 0.918866 0.542515
0.062561 0.918866 0.542618
0.062561 0.918866 0.543282
0.344122 0.918866 0.545445
0.790883 0.918866 0.548993
0.918866 0.918866 0.550994
0.918866 0.918866 0.551366
0.918866 0.918866 0.551373
0.062561 0.918866 0.538153
0.062561 0.918866 0.538157
0.062561 0.918866 0.538262
0.062561 0.918866 0.538934
0.311553 0.918866 0.541126
0.783244 0.918866 0.544721
0.916216 0.918866 0.546749
0.918866 0.918866 0.547125
0.918866 0.918866 0.547132
0.062561 0.918866 0.538079
0.062561 0.918866 0.538084
0.062561 0.918866 0.538188
0.062561 0.918866 0.538861
0.310959 0.918866 0.541053
0.783114 0.918866 0.544649
0.916117 0.918866 0.546677
0.918866 0.918866 0.547054
0.918866 0.918866 0.547060
0.062561 0.062561 0.848909
0.062561 0.062561 0.848912
0.062561 0.062561 0.848960
0.327150 0.062561 0.849274
0.666399 0.062561 0.850300
0.918866 0.062561 0.851994
0.918866 0.062561 0.852954
0.918866 0.062561 0.853134
0.918866 0.062561 0.853137
0.062561 0.062561 0.848884
0.062561 0.062561 0.848886
0.062561 0.062561 0.848935
0.326741 0.062561 0.849249
0.666273 0.062561 0.850275
0.918866 0.062561 0.851968
0.918866 0.062561 0.852929
0.918866 0.062561 0.853108
0.918866 0.062561 0.853111
0.062561 0.062561 0.848331
0.062561 0.062561 0.848334
0.062561 0.062561 0.848383
0.317706 0.062561 0.848697
0.663540 0.062561 0.849725
0.918866 0.062561 0.851420
0.918866 0.062561 0.852381
0.918866 0.062561 0.852561
0.918866 0.062561 0.852564
0.062561 0.062561 0.844759
0.062561 0.062561 0.844761
0.062561 0.062561 0.844810
0.245506 0.062561 0.845126
0.645445 0.062561 0.846161
0.914259 0.062561 0.847869
0.918866 0.062561 0.848837
0.918866 0.062561 0.849018
0.918866 0.062561 0.849021
0.062561 0.535322 0.832885
0.062561 0.535306 0.832887
0.062561 0.534976 0.832937
0.062561 0.532840 0.833261
0.579305 0.525748 0.834321
0.879377 0.513647 0.836069
0.918866 0.506547 0.837061
0.918866 0.505203 0.837246
0.918866 0.505181 0.837249
0.062561 0.826144 0.812580
0.062561 0.826137 0.812583
0.062561 0.825977 0.812635
0.062561 0.824946 0.812973
0.428454 0.821558 0.814077
0.815899 0.815899 0.815899
0.918866 0.812650 0.816933
0.918866 0.812041 0.817125
0.918866 0.812031 0.817129
0.062561 0.918866 0.800639
0.062561 0.918866 0.800642
0.062561 0.918866 0.800695
0.062561 0.918866 0.801042
0.273742 0.918866 0.802173
0.775740 0.918866 0.804041
0.910469 0.918866 0.805100
0.918866 0.918866 0.805298
0.918866 0.918866 0.805301
0.062561 0.918866 0.798376
0.062561 0.918866 0.798378
0.062561 0.918866 0.798433
0.062561 0.918866 0.798781
0.222887 0.918866 0.799918
0.767844 0.918866 0.801794
0.904458 0.918866 0.802859
0.918866 0.918866 0.803057
0.918866 0.918866 0.803060
0.062561 0.918866 0.798338
0.062561 0.918866 0.798341
0.062561 0.918866 0.798395
0.062561 0.918866 0.798743
0.221870 0.918866 0.799880
0.767710 0.918866 0.801757
0.904357 0.918866 0.802821
0.918866 0.918866 0.803019
0.918866 0.918866 0.803023
0.062561 0.062561 0.918866
0.062561 0.062561 0.918866
0.062561 0.062561 0.918866
0.286617 0.062561 0.918866
0.654938 0.062561 0.918866
0.918866 0.062561 0.918866
0.918866 0.062561 0.918866
0.918866 0.062561 0.918866
0.918866 0.062561 0.918866
0.062561 0.062561 0.918866
0.062561 0.062561 0.918866
0.062561 0.062561 0.918866
0.286111 0.062561 0.918866
0.654808 0.062561 0.918866
0.918866 0.062561 0.918866
0.918866 0.062561 0.918866
0.918866 0.062561 0.918866
0.918866 0.062561 0.918866
0.062561 0.062561 0.918866
0.062561 0.062561 0.918866
0.062561 0.062561 0.918866
0.274806 0.062561 0.918866
0.651993 0.062561 0.918866
0.917926 0.062561 0.918866
0.918866 0.062561 0.918866
0.918866 0.062561 0.918866
0.918866 0.062561 0.918866
0.062561 0.062561 0.918866
0.062561 0.062561 0.918866
0.062561 0.062561 0.918866
0.170498 0.062561 0.918866
0.633338 0.062561 0.918866
0.907578 0.062561 0.918866
0.918866 0.062561 0.918866
0.918866 0.062561 0.918866
0.918866 0.062561 0.918866
0.062561 0.482723 0.918866
0.062561 0.482705 0.918866
0.062561 0.482313 0.918866
0.062561 0.479774 0.918866
0.564727 0.471303 0.918866
0.872238 0.456705 0.918866
0.918866 0.448045 0.918866
0.918866 0.446397 0.918866
0.918866 0.446369 0.918866
0.062561 0.802140 0.909910
0.062561 0.802132 0.909912
0.062561 0.801964 0.909955
0.062561 0.800881 0.910235
0.403771 0.797319 0.911148
0.807788 0.791365 0.912655
0.918866 0.787943 0.913512
0.918866 0.787302 0.913671
0.918866 0.787291 0.913674
0.062561 0.915062 0.900073
0.062561 0.915055 0.900075
0.062561 0.914921 0.900120
0.062561 0.914054 0.900404
0.215524 0.911206 0.901334
0.766898 0.906459 0.902869
0.903741 0.903741 0.903741
0.918866 0.903231 0.903903
0.918866 0.903223 0.903906
0.062561 0.918866 0.898216
0.062561 0.918866 0.898218
0.062561 0.918866 0.898262
0.062561 0.918866 0.898548
0.124231 0.918866 0.899481
0.758847 0.918866 0.901023
0.897653 0.918866 0.901897
0.918866 0.918866 0.902060
0.918866 0.918866 0.902063
0.062561 0.918866 0.898185
0.062561 0.918866 0.898187
0.062561 0.918866 0.898232
0.062561 0.918866 0.898517
0.121707 0.918866 0.899450
0.758711 0.918866 0.900991
0.897550 0.918866 0.901866
0.918866 0.918866 0.902029
0.918866 0.918866 0.902031
0.062561 0.062561 0.918866
0.062561 0.062561 0.918866
0.062561 0.062561 0.918866
0.277951 0.062561 0.918866
0.652760 0.062561 0.918866
0.918358 0.062561 0.918866
0.918866 0.062561 0.918866
0.918866 0.062561 0.918866
0.918866 0.062561 0.918866
0.062561 0.062561 0.918866
0.062561 0.062561 0.918866
0.062561 0.062561 0.918866
0.277420 0.062561 0.918866
0.652630 0.062561 0.918866
0.918285 0.062561 0.918866
0.918866 0.062561 0.918866
0.918866 0.062561 0.918866
0.918866 0.062561 0.918866
0.062561 0.062561 0.918866
0.062561 0.062561 0.918866
0.062561 0.062561 0.918866
0.265508 0.062561 0.918866
0.649799 0.062561 0.918866
0.916693 0.062561 0.918866
0.918866 0.062561 0.918866
0.918866 0.062561 0.918866
0.918866 0.062561 0.918866
0.062561 0.062561 0.918866
0.062561 0.062561 0.918866
0.062561 0.062561 0.918866
0.149344 0.062561 0.918866
0.631035 0.062561 0.918866
0.906321 0.062561 0.918866
0.918866 0.062561 0.918866
0.918866 0.062561 0.918866
0.918866 0.062561 0.918866
0.062561 0.471791 0.918866
0.062561 0.471773 0.918866
0.062561 0.471365 0.918866
0.062561 0.468727 0.918866
0.561935 0.459917 0.918866
0.870894 0.444689 0.918866
0.918866 0.435629 0.918866
0.918866 0.433903 0.918866
0.918866 0.433874 0.918866
0.062561 0.797522 0.918866
0.062561 0.797514 0.918866
0.062561 0.797345 0.918866
0.062561 0.796252 0.918866
0.398880 0.792655 0.918866
0.806258 0.786640 0.918866
0.918866 0.783183 0.918866
0.918866 0.782535 0.918866
0.918866 0.782525 0.918866
0.062561 0.911369 0.916694
0.062561 0.911362 0.916696
0.062561 0.911227 0.916738
0.062561 0.910353 0.917014
0.201497 0.907486 0.917916
0.765229 0.902707 0.918866
0.902475 0.899969 0.918866
0.918866 0.899456 0.918866
0.918866 0.899447 0.918866
0.062561 0.918866 0.914894
0.062561 0.918866 0.914896
0.062561 0.918866 0.914938
0.062561 0.918866 0.915215
0.088795 0.918866 0.916120
0.757147 0.918866 0.917614
0.896373 0.918866 0.918462
0.918620 0.918620 0.918620
0.918866 0.918612 0.918622
0.062561 0.918866 0.914864
0.062561 0.918866 0.914866
0.062561 0.918866 0.914908
0.062561 0.918866 0.915185
0.085852 0.918866 0.916090
0.757011 0.918866 0.917584
0.896270 0.918866 0.918432
0.918521 0.918866 0.918590
0.918866 0.918866 0.918592
0.062561 0.062561 0.918866
0.062561 0.062561 0.918866
0.062561 0.062561 0.918866
0.277803 0.062561 0.918866
0.652723 0.062561 0.918866
0.918337 0.062561 0.918866
0.918866 0.062561 0.918866
0.918866 0.062561 0.918866
0.918866 0.062561 0.918866
0.062561 0.062561 0.918866
0.062561 0.062561 0.918866
0.062561 0.062561 0.918866
0.277271 0.062561 0.918866
0.652593 0.062561 0.918866
0.918264 0.062561 0.918866
0.918866 0.062561 0.918866
0.918866 0.062561 0.918866
0.918866 0.062561 0.918866
0.062561 0.062561 0.918866
0.062561 0.062561 0.918866
0.062561 0.062561 0.918866
0.265347 0.062561 0.918866
0.649762 0.062561 0.918866
0.916672 0.062561 0.918866
0.918866 0.062561 0.918866
0.918866 0.062561 0.918866
0.918866 0.062561 0.918866
0.062561 0.062561 0.918866
0.062561 0.062561 0.918866
0.062561 0.062561 0.918866
0.148950 0.062561 0.918866
0.630996 0.062561 0.918866
0.906300 0.062561 0.918866
0.918866 0.062561 0.918866
0.918866 0.062561 0.918866
0.918866 0.062561 0.918866
0.062561 0.471605 0.918866
0.062561 0.471586 0.918866
0.062561 0.471178 0.918866
0.062561 0.468538 0.918866
0.561888 0.459722 0.918866
0.870872 0.444483 0.918866
0.918866 0.435416 0.918866
0.918866 0.433688 0.918866
0.918866 0.433659 0.918866
0.062561 0.797445 0.918866
0.062561 0.797437 0.918866
0.062561 0.797267 0.918866
0.062561 0.796173 0.918866
0.398797 0.792576 0.918866
0.806233 0.786560 0.918866
0.918866 0.783104 0.918866
0.918866 0.782455 0.918866
0.918866 0.782444 0.918866
0.062561 0.911306 0.916968
0.062561 0.911300 0.916970
0.062561 0.911165 0.917013
0.062561 0.910291 0.917288
0.201249 0.907424 0.918190
0.765201 0.902643 0.918866
0.902454 0.899905 0.918866
0.918866 0.899392 0.918866
0.918866 0.899383 0.918866
0.062561 0.918866 0.915169
0.062561 0.918866 0.915170
0.062561 0.918866 0.915214
0.062561 0.918866 0.915490
0.088181 0.918866 0.916394
0.757119 0.918866 0.917888
0.896352 0.918866 0.918735
0.918600 0.918559 0.918866
0.918866 0.918550 0.918866
0.062561 0.918866 0.915138
0.062561 0.918866 0.915140
0.062561 0.918866 0.915184
0.062561 0.918866 0.915460
0.085237 0.918866 0.916364
0.756982 0.918866 0.917858
0.896248 0.918866 0.918706
0.918501 0.918866 0.918863
0.918866 0.918866 0.918866
