cubeTest.cube
# Alexa conversion LUT, logc2video, itu709. Legal in/legal out.
# created by alexalutconv (2.11)
LUT_3D_SIZE 17
0.062561 0.062561 0.062561
0.062561 0.062561 0.062561
0.070668 0.062561 0.062620
0.124431 0.062561 0.063019
0.193809 0.062561 0.063891
0.287617 0.062561 0.066139
0.420887 0.062561 0.072089
0.562474 0.062561 0.082896
0.700999 0.062561 0.098914
0.833625 0.062561 0.119609
0.918866 0.062561 0.138128
0.918866 0.062561 0.149254
0.918866 0.062561 0.154787
0.918866 0.062561 0.156862
0.918866 0.062561 0.157609
0.918866 0.062561 0.157656
0.918866 0.062561 0.157656
0.062561 0.062561 0.062561
0.062561 0.062561 0.062561
0.070668 0.062561 0.062620
0.124431 0.062561 0.063019
0.193809 0.062561 0.063891
0.287617 0.062561 0.066139
0.420887 0.062561 0.072089
0.562474 0.062561 0.082896
0.700999 0.062561 0.098914
0.833625 0.062561 0.119609
0.918866 0.062561 0.138128
0.918866 0.062561 0.149254
0.918866 0.062561 0.154787
0.918866 0.062561 0.156862
0.918866 0.062561 0.157609
0.918866 0.062561 0.157656
0.918866 0.062561 0.157656
0.062561 0.069565 0.062561
0.062561 0.069565 0.062561
0.068478 0.069381 0.062561
0.122565 0.068131 0.062561
0.192866 0.065401 0.063225
0.287114 0.062561 0.065472
0.420617 0.062561 0.071423
0.562306 0.062561 0.082230
0.700884 0.062561 0.098248
0.833538 0.062561 0.119012
0.918866 0.062561 0.137646
0.918866 0.062561 0.148826
0.918866 0.062561 0.154382
0.918866 0.062561 0.156465
0.918866 0.062561 0.157215
0.918866 0.062561 0.157262
0.918866 0.062561 0.157262
0.062561 0.116855 0.062561
0.062561 0.116855 0.062561
0.062561 0.116684 0.062561
0.108641 0.115518 0.062561
0.186264 0.112909 0.062561
0.283661 0.105906 0.062561
0.418774 0.087281 0.066901
0.561169 0.062561 0.077708
0.700097 0.062561 0.093727
0.832950 0.062561 0.114837
0.918866 0.062561 0.134309
0.918866 0.062561 0.145868
0.918866 0.062561 0.151589
0.918866 0.062561 0.153730
0.918866 0.062561 0.154500
0.918866 0.062561 0.154548
0.918866 0.062561 0.154548
0.062561 0.182607 0.062561
0.062561 0.182607 0.062561
0.062561 0.182520 0.062561
0.076170 0.181930 0.062561
0.170418 0.180630 0.062561
0.275876 0.177213 0.062561
0.414703 0.167635 0.062561
0.558671 0.147688 0.067834
0.698373 0.107134 0.083851
0.831664 0.062561 0.105075
0.918866 0.062561 0.126554
0.918866 0.062561 0.139075
0.918866 0.062561 0.145201
0.918866 0.062561 0.147483
0.918866 0.062561 0.148303
0.918866 0.062561 0.148354
0.918866 0.062561 0.148354
0.062561 0.271510 0.062561
0.062561 0.271510 0.062561
0.062561 0.271464 0.062561
0.062561 0.271149 0.062561
0.112652 0.270459 0.062561
0.253986 0.268669 0.062561
0.403896 0.263834 0.062561
0.552147 0.254669 0.062561
0.693899 0.240030 0.062561
0.828334 0.218124 0.079627
0.918866 0.189365 0.102803
0.918866 0.163984 0.118755
0.918866 0.147277 0.126397
0.918866 0.139927 0.129193
0.918866 0.137092 0.130192
0.918866 0.136912 0.130254
0.918866 0.136912 0.130254
0.062561 0.397814 0.062561
0.062561 0.397814 0.062561
0.062561 0.397789 0.062561
0.062561 0.397620 0.062561
0.062561 0.397250 0.062561
0.172749 0.396294 0.062561
0.372710 0.393744 0.062561
0.534225 0.389042 0.062561
0.681814 0.381896 0.062561
0.819408 0.372077 0.062561
0.918866 0.360847 0.062561
0.918866 0.352550 0.062561
0.918866 0.347920 0.062561
0.918866 0.346091 0.064141
0.918866 0.345419 0.065403
0.918866 0.345376 0.065482
0.918866 0.345376 0.065482
0.062561 0.531999 0.062561
0.062561 0.531999 0.062561
0.062561 0.531983 0.062561
0.062561 0.531879 0.062561
0.062561 0.531650 0.062561
0.062561 0.531060 0.062561
0.301482 0.529491 0.062561
0.498842 0.526623 0.062561
0.658896 0.522323 0.062561
0.802762 0.516533 0.062561
0.918866 0.510086 0.062561
0.918866 0.505445 0.062561
0.918866 0.502902 0.062561
0.918866 0.501907 0.062561
0.918866 0.501542 0.062561
0.918866 0.501519 0.062561
0.918866 0.501519 0.062561
0.062561 0.663283 0.062561
0.062561 0.663283 0.062561
0.062561 0.663273 0.062561
0.062561 0.663200 0.062561
0.062561 0.663042 0.062561
0.062561 0.662634 0.062561
0.062561 0.661550 0.062561
0.437122 0.659575 0.062561
0.622247 0.656629 0.062561
0.776966 0.652692 0.062561
0.901572 0.648347 0.062561
0.918866 0.645246 0.062561
0.918866 0.643556 0.062561
0.918866 0.642896 0.062561
0.918866 0.642655 0.062561
0.918866 0.642639 0.062561
0.918866 0.642639 0.062561
0.062561 0.788976 0.062561
0.062561 0.788976 0.062561
0.062561 0.788968 0.062561
0.062561 0.788914 0.062561
0.062561 0.788795 0.062561
0.062561 0.788491 0.062561
0.062561 0.787682 0.062561
0.322156 0.786209 0.062561
0.567304 0.784018 0.062561
0.740397 0.781099 0.062561
0.873485 0.777891 0.062561
0.918866 0.775609 0.062561
0.918866 0.774369 0.062561
0.918866 0.773885 0.062561
0.918866 0.773708 0.062561
0.918866 0.773697 0.062561
0.918866 0.773697 0.062561
0.062561 0.895965 0.062561
0.062561 0.895965 0.062561
0.062561 0.895959 0.062561
0.062561 0.895914 0.062561
0.062561 0.895819 0.062561
0.062561 0.895573 0.062561
0.062561 0.894920 0.062561
0.062561 0.893734 0.062561
0.494897 0.891969 0.062561
0.696649 0.889622 0.062561
0.840965 0.887047 0.062561
0.918866 0.885219 0.062561
0.918866 0.884227 0.062561
0.918866 0.883840 0.062561
0.918866 0.883699 0.062561
0.918866 0.883690 0.062561
0.918866 0.883690 0.062561
0.062561 0.918866 0.062561
0.062561 0.918866 0.062561
0.062561 0.918866 0.062561
0.062561 0.918866 0.062561
0.062561 0.918866 0.062561
0.062561 0.918866 0.062561
0.062561 0.918866 0.062561
0.062561 0.918866 0.062561
0.430589 0.918866 0.062561
0.662701 0.918866 0.062561
0.816632 0.918866 0.062561
0.901388 0.918866 0.062561
0.918866 0.918866 0.062561
0.918866 0.918866 0.062561
0.918866 0.918866 0.062561
0.918866 0.918866 0.062561
0.918866 0.918866 0.062561
0.062561 0.918866 0.062561
0.062561 0.918866 0.062561
0.062561 0.918866 0.062561
0.062561 0.918866 0.062561
0.062561 0.918866 0.062561
0.062561 0.918866 0.062561
0.062561 0.918866 0.062561
0.062561 0.918866 0.062561
0.387936 0.918866 0.062561
0.643034 0.918866 0.062561
0.802929 0.918866 0.062561
0.889824 0.918866 0.062561
0.918866 0.918866 0.062561
0.918866 0.918866 0.062561
0.918866 0.918866 0.062561
0.918866 0.918866 0.062561
0.918866 0.918866 0.062561
0.062561 0.918866 0.062561
0.062561 0.918866 0.062561
0.062561 0.918866 0.062561
0.062561 0.918866 0.062561
0.062561 0.918866 0.062561
0.062561 0.918866 0.062561
0.062561 0.918866 0.062561
0.062561 0.918866 0.062561
0.369056 0.918866 0.062561
0.635100 0.918866 0.062561
0.797486 0.918866 0.062561
0.885252 0.918866 0.062561
0.918866 0.918866 0.062561
0.918866 0.918866 0.062561
0.918866 0.918866 0.062561
0.918866 0.918866 0.062561
0.918866 0.918866 0.062561
0.062561 0.918866 0.062561
0.062561 0.918866 0.062561
0.062561 0.918866 0.062561
0.062561 0.918866 0.062561
0.062561 0.918866 0.062561
0.062561 0.918866 0.062561
0.062561 0.918866 0.062561
0.062561 0.918866 0.062561
0.361750 0.918866 0.062561
0.632160 0.918866 0.062561
0.795483 0.918866 0.062561
0.883573 0.918866 0.062561
0.918866 0.918866 0.062561
0.918866 0.918866 0.062561
0.918866 0.918866 0.062561
0.918866 0.918866 0.062561
0.918866 0.918866 0.062561
0.062561 0.918866 0.062561
0.062561 0.918866 0.062561
0.062561 0.918866 0.062561
0.062561 0.918866 0.062561
0.062561 0.918866 0.062561
0.062561 0.918866 0.062561
0.062561 0.918866 0.062561
0.062561 0.918866 0.062561
0.361284 0.918866 0.062561
0.631975 0.918866 0.062561
0.795357 0.918866 0.062561
0.883468 0.918866 0.062561
0.918866 0.918866 0.062561
0.918866 0.918866 0.062561
0.918866 0.918866 0.062561
0.918866 0.918866 0.062561
0.918866 0.918866 0.062561
0.062561 0.918866 0.062561
0.062561 0.918866 0.062561
0.062561 0.918866 0.062561
0.062561 0.918866 0.062561
0.062561 0.918866 0.062561
0.062561 0.918866 0.062561
0.062561 0.918866 0.062561
0.062561 0.918866 0.062561
0.361284 0.918866 0.062561
0.631975 0.918866 0.062561
0.795357 0.918866 0.062561
0.883468 0.918866 0.062561
0.918866 0.918866 0.062561
0.918866 0.918866 0.062561
0.918866 0.918866 0.062561
0.918866 0.918866 0.062561
0.918866 0.918866 0.062561
0.062561 0.062561 0.062561
0.062561 0.062561 0.062561
0.070668 0.062561 0.062620
0.124431 0.062561 0.063019
0.193809 0.062561 0.063891
0.287617 0.062561 0.066139
0.420887 0.062561 0.072089
0.562474 0.062561 0.082896
0.700999 0.062561 0.098914
0.833625 0.062561 0.119609
0.918866 0.062561 0.138128
0.918866 0.062561 0.149254
0.918866 0.062561 0.154787
0.918866 0.062561 0.156862
0.918866 0.062561 0.157609
0.918866 0.062561 0.157656
0.918866 0.062561 0.157656
0.062561 0.062561 0.062561
0.062561 0.062561 0.062561
0.070668 0.062561 0.062620
0.124431 0.062561 0.063019
0.193809 0.062561 0.063891
0.287617 0.062561 0.066139
0.420887 0.062561 0.072089
0.562474 0.062561 0.082896
0.700999 0.062561 0.098914
0.833625 0.062561 0.119609
0.918866 0.062561 0.138128
0.918866 0.062561 0.149254
0.918866 0.062561 0.154787
0.918866 0.062561 0.156862
0.918866 0.062561 0.157609
0.918866 0.062561 0.157656
0.918866 0.062561 0.157656
0.062561 0.069565 0.062561
0.062561 0.069565 0.062561
0.068478 0.069381 0.062561
0.122565 0.068131 0.062561
0.192866 0.065401 0.063225
0.287114 0.062561 0.065472
0.420617 0.062561 0.071423
0.562306 0.062561 0.082230
0.700884 0.062561 0.098248
0.833538 0.062561 0.119012
0.918866 0.062561 0.137646
0.918866 0.062561 0.148826
0.918866 0.062561 0.154382
0.918866 0.062561 0.156465
0.918866 0.062561 0.157215
0.918866 0.062561 0.157262
0.918866 0.062561 0.157262
0.062561 0.116855 0.062561
0.062561 0.116855 0.062561
0.062561 0.116684 0.062561
0.108641 0.115518 0.062561
0.186264 0.112909 0.062561
0.283661 0.105906 0.062561
0.418774 0.087281 0.066901
0.561169 0.062561 0.077708
0.700097 0.062561 0.093727
0.832950 0.062561 0.114837
0.918866 0.062561 0.134309
0.918866 0.062561 0.145868
0.918866 0.062561 0.151589
0.918866 0.062561 0.153730
0.918866 0.062561 0.154500
0.918866 0.062561 0.154548
0.918866 0.062561 0.154548
0.062561 0.182607 0.062561
0.062561 0.182607 0.062561
0.062561 0.182520 0.062561
0.076170 0.181930 0.062561
0.170418 0.180630 0.062561
0.275876 0.177213 0.062561
0.414703 0.167635 0.062561
0.558671 0.147688 0.067834
0.698373 0.107134 0.083851
0.831664 0.062561 0.105075
0.918866 0.062561 0.126554
0.918866 0.062561 0.139075
0.918866 0.062561 0.145201
0.918866 0.062561 0.147483
0.918866 0.062561 0.148303
0.918866 0.062561 0.148354
0.918866 0.062561 0.148354
0.062561 0.271510 0.062561
0.062561 0.271510 0.062561
0.062561 0.271464 0.062561
0.062561 0.271149 0.062561
0.112652 0.270459 0.062561
0.253986 0.268669 0.062561
0.403896 0.263834 0.062561
0.552147 0.254669 0.062561
0.693899 0.240030 0.062561
0.828334 0.218124 0.079627
0.918866 0.189365 0.102803
0.918866 0.163984 0.118755
0.918866 0.147277 0.126397
0.918866 0.139927 0.129193
0.918866 0.137092 0.130192
0.918866 0.136912 0.130254
0.918866 0.136912 0.130254
0.062561 0.397814 0.062561
0.062561 0.397814 0.062561
0.062561 0.397789 0.062561
0.062561 0.397620 0.062561
0.062561 0.397250 0.062561
0.172749 0.396294 0.062561
0.372710 0.393744 0.062561
0.534225 0.389042 0.062561
0.681814 0.381896 0.062561
0.819408 0.372077 0.062561
0.918866 0.360847 0.062561
0.918866 0.352550 0.062561
0.918866 0.347920 0.062561
0.918866 0.346091 0.064141
0.918866 0.345419 0.065403
0.918866 0.345376 0.065482
0.918866 0.345376 0.065482
0.062561 0.531999 0.062561
0.062561 0.531999 0.062561
0.062561 0.531983 0.062561
0.062561 0.531879 0.062561
0.062561 0.531650 0.062561
0.062561 0.531060 0.062561
0.301482 0.529491 0.062561
0.498842 0.526623 0.062561
0.658896 0.522323 0.062561
0.802762 0.516533 0.062561
0.918866 0.510086 0.062561
0.918866 0.505445 0.062561
0.918866 0.502902 0.062561
0.918866 0.501907 0.062561
0.918866 0.501542 0.062561
0.918866 0.501519 0.062561
0.918866 0.501519 0.062561
0.062561 0.663283 0.062561
0.062561 0.663283 0.062561
0.062561 0.663273 0.062561
0.062561 0.663200 0.062561
0.062561 0.663042 0.062561
0.062561 0.662634 0.062561
0.062561 0.661550 0.062561
0.437122 0.659575 0.062561
0.622247 0.656629 0.062561
0.776966 0.652692 0.062561
0.901572 0.648347 0.062561
0.918866 0.645246 0.062561
0.918866 0.643556 0.062561
0.918866 0.642896 0.062561
0.918866 0.642655 0.062561
0.918866 0.642639 0.062561
0.918866 0.642639 0.062561
0.062561 0.788976 0.062561
0.062561 0.788976 0.062561
0.062561 0.788968 0.062561
0.062561 0.788914 0.062561
0.062561 0.788795 0.062561
0.062561 0.788491 0.062561
0.062561 0.787682 0.062561
0.322156 0.786209 0.062561
0.567304 0.784018 0.062561
0.740397 0.781099 0.062561
0.873485 0.777891 0.062561
0.918866 0.775609 0.062561
0.918866 0.774369 0.062561
0.918866 0.773885 0.062561
0.918866 0.773708 0.062561
0.918866 0.773697 0.062561
0.918866 0.773697 0.062561
0.062561 0.895965 0.062561
0.062561 0.895965 0.062561
0.062561 0.895959 0.062561
0.062561 0.895914 0.062561
0.062561 0.895819 0.062561
0.062561 0.895573 0.062561
0.062561 0.894920 0.062561
0.062561 0.893734 0.062561
0.494897 0.891969 0.062561
0.696649 0.889622 0.062561
0.840965 0.887047 0.062561
0.918866 0.885219 0.062561
0.918866 0.884227 0.062561
0.918866 0.883840 0.062561
0.918866 0.883699 0.062561
0.918866 0.883690 0.062561
0.918866 0.883690 0.062561
0.062561 0.918866 0.062561
0.062561 0.918866 0.062561
0.062561 0.918866 0.062561
0.062561 0.918866 0.062561
0.062561 0.918866 0.062561
0.062561 0.918866 0.062561
0.062561 0.918866 0.062561
0.062561 0.918866 0.062561
0.430589 0.918866 0.062561
0.662701 0.918866 0.062561
0.816632 0.918866 0.062561
0.901388 0.918866 0.062561
0.918866 0.918866 0.062561
0.918866 0.918866 0.062561
0.918866 0.918866 0.062561
0.918866 0.918866 0.062561
0.918866 0.918866 0.062561
0.062561 0.918866 0.062561
0.062561 0.918866 0.062561
0.062561 0.918866 0.062561
0.062561 0.918866 0.062561
0.062561 0.918866 0.062561
0.062561 0.918866 0.062561
0.062561 0.918866 0.062561
0.062561 0.918866 0.062561
0.387936 0.918866 0.062561
0.643034 0.918866 0.062561
0.802929 0.918866 0.062561
0.889824 0.918866 0.062561
0.918866 0.918866 0.062561
0.918866 0.918866 0.062561
0.918866 0.918866 0.062561
0.918866 0.918866 0.062561
0.918866 0.918866 0.062561
0.062561 0.918866 0.062561
0.062561 0.918866 0.062561
0.062561 0.918866 0.062561
0.062561 0.918866 0.062561
0.062561 0.918866 0.062561
0.062561 0.918866 0.062561
0.062561 0.918866 0.062561
0.062561 0.918866 0.062561
0.369056 0.918866 0.062561
0.635100 0.918866 0.062561
0.797486 0.918866 0.062561
0.885252 0.918866 0.062561
0.918866 0.918866 0.062561
0.918866 0.918866 0.062561
0.918866 0.918866 0.062561
0.918866 0.918866 0.062561
0.918866 0.918866 0.062561
0.062561 0.918866 0.062561
0.062561 0.918866 0.062561
0.062561 0.918866 0.062561
0.062561 0.918866 0.062561
0.062561 0.918866 0.062561
0.062561 0.918866 0.062561
0.062561 0.918866 0.062561
0.062561 0.918866 0.062561
0.361750 0.918866 0.062561
0.632160 0.918866 0.062561
0.795483 0.918866 0.062561
0.883573 0.918866 0.062561
0.918866 0.918866 0.062561
0.918866 0.918866 0.062561
0.918866 0.918866 0.062561
0.918866 0.918866 0.062561
0.918866 0.918866 0.062561
0.062561 0.918866 0.062561
0.062561 0.918866 0.062561
0.062561 0.918866 0.062561
0.062561 0.918866 0.062561
0.062561 0.918866 0.062561
0.062561 0.918866 0.062561
0.062561 0.918866 0.062561
0.062561 0.918866 0.062561
0.361284 0.918866 0.062561
0.631975 0.918866 0.062561
0.795357 0.918866 0.062561
0.883468 0.918866 0.062561
0.918866 0.918866 0.062561
0.918866 0.918866 0.062561
0.918866 0.918866 0.062561
0.918866 0.918866 0.062561
0.918866 0.918866 0.062561
0.062561 0.918866 0.062561
0.062561 0.918866 0.062561
0.062561 0.918866 0.062561
0.062561 0.918866 0.062561
0.062561 0.918866 0.062561
0.062561 0.918866 0.062561
0.062561 0.918866 0.062561
0.062561 0.918866 0.062561
0.361284 0.918866 0.062561
0.631975 0.918866 0.062561
0.795357 0.918866 0.062561
0.883468 0.918866 0.062561
0.918866 0.918866 0.062561
0.918866 0.918866 0.062561
0.918866 0.918866 0.062561
0.918866 0.918866 0.062561
0.918866 0.918866 0.062561
0.062561 0.062561 0.068628
0.062561 0.062561 0.068628
0.070211 0.062561 0.068687
0.124045 0.062561 0.069086
0.193613 0.062561 0.069958
0.287512 0.062561 0.072205
0.420831 0.062561 0.078156
0.562439 0.062561 0.088963
0.700975 0.062561 0.104981
0.833607 0.062561 0.124856
0.918866 0.062561 0.142401
0.918866 0.062561 0.153070
0.918866 0.062561 0.158404
0.918866 0.062561 0.160408
0.918866 0.062561 0.161130
0.918866 0.062561 0.161175
0.918866 0.062561 0.161175
0.062561 0.062561 0.068628
0.062561 0.062561 0.068628
0.070211 0.062561 0.068687
0.124045 0.062561 0.069086
0.193613 0.062561 0.069958
0.287512 0.062561 0.072205
0.420831 0.062561 0.078156
0.562439 0.062561 0.088963
0.700975 0.062561 0.104981
0.833607 0.062561 0.124856
0.918866 0.062561 0.142401
0.918866 0.062561 0.153070
0.918866 0.062561 0.158404
0.918866 0.062561 0.160408
0.918866 0.062561 0.161130
0.918866 0.062561 0.161175
0.918866 0.062561 0.161175
0.062561 0.068204 0.067962
0.062561 0.068204 0.067962
0.068021 0.068021 0.068021
0.122170 0.066770 0.068420
0.192668 0.064040 0.069292
0.287008 0.062561 0.071539
0.420561 0.062561 0.077490
0.562271 0.062561 0.088297
0.700859 0.062561 0.104315
0.833521 0.062561 0.124296
0.918866 0.062561 0.141941
0.918866 0.062561 0.152658
0.918866 0.062561 0.158013
0.918866 0.062561 0.160024
0.918866 0.062561 0.160749
0.918866 0.062561 0.160794
0.918866 0.062561 0.160794
0.062561 0.115587 0.063440
0.062561 0.115587 0.063440
0.062561 0.115414 0.063499
0.108183 0.114229 0.063898
0.186055 0.111576 0.064770
0.283554 0.104546 0.067018
0.418718 0.085921 0.072968
0.561134 0.062561 0.083775
0.700073 0.062561 0.099793
0.832932 0.062561 0.120390
0.918866 0.062561 0.138759
0.918866 0.062561 0.149816
0.918866 0.062561 0.155319
0.918866 0.062561 0.157383
0.918866 0.062561 0.158127
0.918866 0.062561 0.158173
0.918866 0.062561 0.158173
0.062561 0.181965 0.062561
0.062561 0.181965 0.062561
0.062561 0.181877 0.062561
0.075712 0.181284 0.062561
0.170178 0.179977 0.062561
0.275763 0.176540 0.062561
0.414645 0.166902 0.063093
0.558635 0.146798 0.073900
0.698349 0.105774 0.089918
0.831646 0.062561 0.111140
0.918866 0.062561 0.131399
0.918866 0.062561 0.143306
0.918866 0.062561 0.149174
0.918866 0.062561 0.151367
0.918866 0.062561 0.152156
0.918866 0.062561 0.152205
0.918866 0.062561 0.152205
0.062561 0.271168 0.062561
0.062561 0.271168 0.062561
0.062561 0.271121 0.062561
0.062561 0.270805 0.062561
0.112204 0.270114 0.062561
0.253857 0.268320 0.062561
0.403836 0.263475 0.062561
0.552111 0.254289 0.062561
0.693875 0.239612 0.064471
0.828317 0.217638 0.085694
0.918866 0.188758 0.108870
0.918866 0.163225 0.124055
0.918866 0.146383 0.131251
0.918866 0.138960 0.133898
0.918866 0.136095 0.134846
0.918866 0.135912 0.134905
0.918866 0.135912 0.134905
0.062561 0.397631 0.062561
0.062561 0.397631 0.062561
0.062561 0.397605 0.062561
0.062561 0.397436 0.062561
0.062561 0.397066 0.062561
0.172514 0.396108 0.062561
0.372641 0.393557 0.062561
0.534187 0.388850 0.062561
0.681789 0.381699 0.062561
0.819390 0.371871 0.062561
0.918866 0.360630 0.062561
0.918866 0.352325 0.062561
0.918866 0.347691 0.066754
0.918866 0.345859 0.070208
0.918866 0.345187 0.071470
0.918866 0.345144 0.071548
0.918866 0.345144 0.071548
0.062561 0.531885 0.062561
0.062561 0.531885 0.062561
0.062561 0.531870 0.062561
0.062561 0.531765 0.062561
0.062561 0.531536 0.062561
0.062561 0.530945 0.062561
0.301385 0.529376 0.062561
0.498799 0.526507 0.062561
0.658868 0.522205 0.062561
0.802743 0.516414 0.062561
0.918866 0.509964 0.062561
0.918866 0.505321 0.062561
0.918866 0.502777 0.062561
0.918866 0.501781 0.062561
0.918866 0.501417 0.062561
0.918866 0.501394 0.062561
0.918866 0.501394 0.062561
0.062561 0.663205 0.062561
0.062561 0.663205 0.062561
0.062561 0.663194 0.062561
0.062561 0.663121 0.062561
0.062561 0.662963 0.062561
0.062561 0.662555 0.062561
0.062561 0.661471 0.062561
0.437069 0.659496 0.062561
0.622218 0.656550 0.062561
0.776946 0.652612 0.062561
0.901556 0.648266 0.062561
0.918866 0.645164 0.062561
0.918866 0.643473 0.062561
0.918866 0.642813 0.062561
0.918866 0.642572 0.062561
0.918866 0.642556 0.062561
0.918866 0.642556 0.062561
0.062561 0.788917 0.062561
0.062561 0.788917 0.062561
0.062561 0.788909 0.062561
0.062561 0.788855 0.062561
0.062561 0.788737 0.062561
0.062561 0.788431 0.062561
0.062561 0.787622 0.062561
0.322069 0.786149 0.062561
0.567269 0.783959 0.062561
0.740375 0.781039 0.062561
0.873468 0.777830 0.062561
0.918866 0.775548 0.062561
0.918866 0.774308 0.062561
0.918866 0.773824 0.062561
0.918866 0.773647 0.062561
0.918866 0.773636 0.062561
0.918866 0.773636 0.062561
0.062561 0.895917 0.062561
0.062561 0.895917 0.062561
0.062561 0.895911 0.062561
0.062561 0.895867 0.062561
0.062561 0.895772 0.062561
0.062561 0.895525 0.062561
0.062561 0.894873 0.062561
0.062561 0.893686 0.062561
0.494853 0.891921 0.062561
0.696625 0.889574 0.062561
0.840947 0.886999 0.062561
0.918866 0.885171 0.062561
0.918866 0.884178 0.062561
0.918866 0.883791 0.062561
0.918866 0.883650 0.062561
0.918866 0.883641 0.062561
0.918866 0.883641 0.062561
0.062561 0.918866 0.062561
0.062561 0.918866 0.062561
0.062561 0.918866 0.062561
0.062561 0.918866 0.062561
0.062561 0.918866 0.062561
0.062561 0.918866 0.062561
0.062561 0.918866 0.062561
0.062561 0.918866 0.062561
0.430535 0.918866 0.062561
0.662675 0.918866 0.062561
0.816613 0.918866 0.062561
0.901372 0.918866 0.062561
0.918866 0.918866 0.062561
0.918866 0.918866 0.062561
0.918866 0.918866 0.062561
0.918866 0.918866 0.062561
0.918866 0.918866 0.062561
0.062561 0.918866 0.062561
0.062561 0.918866 0.062561
0.062561 0.918866 0.062561
0.062561 0.918866 0.062561
0.062561 0.918866 0.062561
0.062561 0.918866 0.062561
0.062561 0.918866 0.062561
0.062561 0.918866 0.062561
0.387872 0.918866 0.062561
0.643006 0.918866 0.062561
0.802910 0.918866 0.062561
0.889807 0.918866 0.062561
0.918866 0.918866 0.062561
0.918866 0.918866 0.062561
0.918866 0.918866 0.062561
0.918866 0.918866 0.062561
0.918866 0.918866 0.062561
0.062561 0.918866 0.062561
0.062561 0.918866 0.062561
0.062561 0.918866 0.062561
0.062561 0.918866 0.062561
0.062561 0.918866 0.062561
0.062561 0.918866 0.062561
0.062561 0.918866 0.062561
0.062561 0.918866 0.062561
0.368986 0.918866 0.062561
0.635072 0.918866 0.062561
0.797467 0.918866 0.062561
0.885236 0.918866 0.062561
0.918866 0.918866 0.062561
0.918866 0.918866 0.062561
0.918866 0.918866 0.062561
0.918866 0.918866 0.062561
0.918866 0.918866 0.062561
0.062561 0.918866 0.062561
0.062561 0.918866 0.062561
0.062561 0.918866 0.062561
0.062561 0.918866 0.062561
0.062561 0.918866 0.062561
0.062561 0.918866 0.062561
0.062561 0.918866 0.062561
0.062561 0.918866 0.062561
0.361678 0.918866 0.062561
0.632131 0.918866 0.062561
0.795463 0.918866 0.062561
0.883557 0.918866 0.062561
0.918866 0.918866 0.062561
0.918866 0.918866 0.062561
0.918866 0.918866 0.062561
0.918866 0.918866 0.062561
0.918866 0.918866 0.062561
0.062561 0.918866 0.062561
0.062561 0.918866 0.062561
0.062561 0.918866 0.062561
0.062561 0.918866 0.062561
0.062561 0.918866 0.062561
0.062561 0.918866 0.062561
0.062561 0.918866 0.062561
0.062561 0.918866 0.062561
0.361212 0.918866 0.062561
0.631946 0.918866 0.062561
0.795338 0.918866 0.062561
0.883451 0.918866 0.062561
0.918866 0.918866 0.062561
0.918866 0.918866 0.062561
0.918866 0.918866 0.062561
0.918866 0.918866 0.062561
0.918866 0.918866 0.062561
0.062561 0.918866 0.062561
0.062561 0.918866 0.062561
0.062561 0.918866 0.062561
0.062561 0.918866 0.062561
0.062561 0.918866 0.062561
0.062561 0.918866 0.062561
0.062561 0.918866 0.062561
0.062561 0.918866 0.062561
0.361212 0.918866 0.062561
0.631946 0.918866 0.062561
0.795338 0.918866 0.062561
0.883451 0.918866 0.062561
0.918866 0.918866 0.062561
0.918866 0.918866 0.062561
0.918866 0.918866 0.062561
0.918866 0.918866 0.062561
0.918866 0.918866 0.062561
0.062561 0.062561 0.109808
0.062561 0.062561 0.109808
0.067106 0.062561 0.109866
0.121375 0.062561 0.110266
0.192271 0.062561 0.111136
0.286798 0.062561 0.113340
0.420448 0.062561 0.118890
0.562201 0.062561 0.128094
0.700811 0.062561 0.140158
0.833484 0.062561 0.154065
0.918866 0.062561 0.167341
0.918866 0.062561 0.175831
0.918866 0.062561 0.180175
0.918866 0.062561 0.181823
0.918866 0.062561 0.182419
0.918866 0.062561 0.182456
0.918866 0.062561 0.182456
